X: 2
T: Lad O'Beirne's Reel
R: reel
S: https://thesession.org/tunes/2316 (2nd setting) 2020-11-18
M: 4/4
L: 1/8
K: Fj
|: d2cA dAcA | GcAF GFDF | CF~F2 CFAc | dcde fagf |
|  d2cA dAcA | GcAF GFDF | CFAc DFBd |[1 cbag f3e :|[2 cbag f3g ||
|::a2gf afgf | defd cBAB | c3d cdfa | g3a [1 g2fg :|[2 f3g :|[3 bagf |
|  afge f3e | defd cAFD | CFAc DFBd | cbag f3e |]
